X: 16741
T: Hardiman The Fiddler
R: slip jig
M: 9/8
K: Adorian
A2G FDE F2G|Ac/A/A AGA cAG|Ac/A/G FDE F2G|Add ded cAG|
Ac/A/G FDE F2G|Ac/A/A ADA cAG|Ac/A/G FDE F2G|Add ded de=f||
Add d2e =f3|Add ded cAG|Add d2e ^f2g|agf ged cAG|
Add d2e =f2e|Add ded cAG|dcA B/c/de f2g|agf ged cAG||

